X:1
T:So sey nun gleich
T:Horatio Vecchi
T:Source : Canzonette mit 3 Stimmen/ H.Vecchi und G Capilupi---Nürnberg---P.Kaffmann---1606. Editor : André Vierendeels (18/02/17).
T:Notes Original clefs : G2, G2, F3 Editorial accidentals above the staff Square bracket indicates ligature Text Middle German by Valentin Hauszmann m 21 in S2 : second "B" notates as "A" in original print German contrafactum of "Hora ch'ogni" 1597 
T:So sey nun gleich
T:©
T:©
T:©
C:Horatio Vecchi
Z:©
%%score [ 1 2 3 ]
L:1/8
Q:1/4=125
M:4/4
K:F
V:1 treble nm="Soprano 1" snm="S 1"
V:2 treble nm="Soprano 2" snm="S 2"
V:3 treble-8 nm="Tenor" snm="T"
V:1
"^1)" A8- | A4 =B2 B2 | c4 c4 | d8- | d4 d4 | _e4 d4 | c8 | A4 z2 d2 | d2 d2 B3 A | G4 c3 B | %10
w: So|_ sey nun|gleich ein|mal|_ ein|zorn ge-|wa-|get, und|ohn be- den- *||
w: Und|_ sprich, es|sey nicht|fein,|_ dasz|du dein|Hert-|ze so|offt ver- wen- *|dest, und da-|
 A3 G F3 G | A4 G4 | z4 g4 | f8- | f4 e4- | e4 d4- | d4 ^c4 |[M:2/4] d4 ::[M:4/4] z2 f2 e2 d2 | %19
w: |* cken,|was|mich|_ thut|_ kren-||cken,|sey dir jetzt|
w: durch _ en- *|* dest,|vil|un-|* treu|_ in|_ ge-|mein,|mit b'trieg- lichm|
 c2 B2 A4- | A2 d2 c2 B2 | _e2 e2 d2 c2- | c2 B2 A2 A2 | d2 c4 B2 | A4 !fermata!G4 :| %25
w: ü- ber- all|_ sein Teutsch ge-|sa- get, weil dirs|_ be- ha- get,|weil dirs be-|ha- get.|
w: scher- * ze,|_ mit b'trieg- lichm|scher- ze, ist mir|_ ein Schmer- ze,|ist mir ein|Schmer- ze.|
V:2
"^2)""^1)" ^F8- | F4 G2 G2 | A4 G4 | ^F6 G2 | A4 =B4 | c4 d4 | _e8 | d2 f2 f2 f2 | fedc dG g2- | %9
w: So|_ sey nun|gleich ein|mal _|_ ein|zorn ge-|wa-|get, und ohn be-|den- * * * * * *|
w: Ich|_ dacht ich|wer der|best bey|dir am|Bre- *||te, und in der|stel- * * * * * *|
 gf e3 d c2- | cB A3 G FE | F4 D4 | d4 c4- | c4 B2 A2 | B2 G2 g4- | g4 f4 | e8 |[M:2/4] d4 :: %18
w: ||* cken,|was mich|||* thut|kren-|cken,|
w: ||* le,|der liebst|_ Ge- *|sel- * *|||le.|
[M:4/4] z2 d2 c2 B2 | A2 G2 ^F4- | F2 B2 G2 B2 | c2 c2 F2 A2- | A2 G2 ^F2 F2 | B2 A4 G2 | %24
w: sey dir jetzt|ü- ber- all|_ sein Teutsch ge-|sa- get, weil dirs|_ be- ha- get,|weil dirs be-|
w: zu dir ge-|bet- * ten,|_ an mei- ne|stet- ten, an mei-|* ne stet- ten,|an mei- ne|
 ^F4 !fermata!G4 :| %25
w: ha- get.|
w: stet- ten.|
V:3
"^3)""^1)""^4)" D8- | D4 G2 G2 | F4 _E4 | D8- | D4 G4 | C4 =B,4 | C8 | D2 d2 d2 d2 | B3 A G4 | %9
w: So|_ sey nun|gleich ein|mal|_ ein|zorn ge-|wa-|get, und ohn be-|den- * *|
w: Kanst|_ du denn|_ so|wol,|_ ü'br|al- le|mas-|sen, so mützt michs|reu- * *|
 c3 B A3 G | F3 E D4 | D2 d2 =B4- | B4 c4 | d8 | G8 | A8- | A8 |[M:2/4] D4 ::[M:4/4] z2 d2 A2 B2 | %19
w: ||cken, was mich|_ thut|kren-||||cken,|sey dir jetzt|
w: ||en, dasz ich|_ mit|tre-||||en,|dir len- ger|
 F2 G2 D4- |"^b" D2 B,2 E2 D2 | C2 C2 B,2 C2- | C2 _E2 D2 D2 | B,2 C4 C2 | D4 !fermata!G4 :| %25
w: ü- ber- all|_ sein teutsch ge-|sa- get, weil dirs|_ be- ha- get,|weil dirs be-|ha- get.|
w: die- nen soll,|_ drumb will ichs|las- sen, fahr hin|_ dein Stras sen,|fahr hin dein|Stras- sen.|

